!!!OTL: Nit verstan
!!!ARE: Europa, Mitteleuropa, Deutschland
!!!SCT: A0469
!!!YEM: Copyright 1995, estate of Helmut Schaffrath.
**kern
*ICvox
*Ivox
*M3/1
*k[f#]
*G:
{1d
=1
1.g
2g
1g
=2
0a
1b
=3
0cc
1cc
=4
0a}
{1a
=5
1b
1b
1a
=6
0g}
{1g
=7
0b
1cc
=8
0dd
1dd
=9
1.dd
2cc
1b
=10
0a}
{1b
=11
0cc
1b
=12
0g
1b
=13
1cc
1cc
1a
=14
0g}
{1b
=15
0cc
1a
=16
0g
1b
=17
1.cc
2b
1a
=18
0g}
{1g
=19
1g
1g
1a
=20
0b
1cc
=21
0dd
1b
=22
1cc
0a
=23
0g}
==
!!!AGN: Romanze, Ballade, Lied
!! Forster II 1540 No. 35.
!!!ONB: ESAC (Essen Associative Code) Database: ALTDEU
!!!AMT: simple triple
!!!AIN: vox
!!!EED: Helmut Schaffrath
!!!EEV: 1.0
*-
